packages/calcite-ui-icons/icons/mosaic-method-north-west-16.svg

<?xml version="1.0" encoding="UTF-8"?><svg id="icons" xmlns="http://www.w3.org/2000/svg" viewBox="0 0 16 16"><defs><style>.cls-1{fill:none;}.cls-2{fill:#6f6f6f;opacity:.25;}.cls-3{opacity:.5;}</style></defs><path d="M4,4h2v1h1v-1h2v1h1V0H0v7h5v-1h-1v-2ZM7,1h2v2h-2V1ZM4,1h2v2h-2V1ZM3,6H1v-2h2v2ZM3,3H1V1h2v2ZM15.35358,14.64648l-.70703.70703-7.64655-7.64648v2.29297h-1v-4h4v1h-2.29297l7.64655,7.64648Z"/><path class="cls-3" d="M9,4v1h-2v-1h2ZM1,6h2v-2H1v2ZM4,3h2V1h-2v2Z"/><rect class="cls-1" width="16" height="16"/><path class="cls-2" d="M1,1h2v2H1V1ZM4,4v2h1c0-.55273.44727-1,1-1v-1h-2Z"/></svg>

<svg xmlns="http://www.w3.org/2000/svg" viewBox="0 0 16 16"><path d="M4 4h2v1h1V4h2v1h1V0H0v7h5V6H4V4zm3-3h2v2H7V1zM4 1h2v2H4V1zM3 6H1V4h2v2zm0-3H1V1h2v2zm12.354 11.646l-.707.708L7 7.707V10H6V6h4v1H7.707l7.647 7.646z"/><path d="M9 4v1H7V4h2zM1 6h2V4H1v2zm3-3h2V1H4v2z" opacity=".5"/><path fill="none" d="M0 0h16v16H0z"/><path d="M1 1h2v2H1V1zm3 3v2h1a1 1 0 0 1 1-1V4H4z" fill="#6f6f6f" opacity=".25"/></svg>
